icons/thumbsdown-24.svg

<svg width="24" height="24" viewBox="0 0 24 24" fill="none" xmlns="http://www.w3.org/2000/svg">
<path fill-rule="evenodd" clip-rule="evenodd" d="M12.5964 21.9946C11.2946 22.0867 10.2931 21.009 10.2931 19.7884L10.2931 18.7359C10.2931 16.0692 8.48031 14.9507 7.51866 14.5363C7.3646 14.4699 7.19129 14.4277 6.99615 14.4047C6.93593 15.3166 6.17717 16.0376 5.25 16.0376H3.75C2.7835 16.0376 2 15.2541 2 14.2876V3.78762C2 2.82113 2.7835 2.03762 3.75 2.03762H5.25C6.15903 2.03762 6.90618 2.73073 6.99181 3.61729C7.83027 3.55684 8.65913 3.32187 9.6829 3.03164C9.87595 2.97692 10.0759 2.92023 10.2842 2.86237C11.7485 2.45562 13.4975 2.0376 15.8276 2.0376C18.0161 2.0376 19.5214 2.24166 20.4112 3.40958C20.8332 3.96345 21.0603 4.66492 21.2266 5.45989C21.3746 6.1675 21.4889 7.03012 21.6227 8.03984L21.6745 8.42985C21.9926 10.8154 22.0022 12.6098 21.4506 13.8232C21.1576 14.4676 20.7077 14.949 20.0963 15.255C19.5051 15.5509 18.8123 15.6583 18.0604 15.6583H16.0095C16.0268 15.7942 16.046 15.9373 16.0662 16.0874C16.0906 16.2685 16.1163 16.4598 16.1415 16.6601C16.2023 17.1426 16.2586 17.6656 16.2586 18.0979C16.2586 19.3423 16.0371 20.3506 15.3387 21.0391C14.6546 21.7135 13.6709 21.9186 12.5964 21.9946ZM7 5.11949C8.05887 5.05556 9.07873 4.76463 10.1178 4.46823C10.3063 4.41444 10.4955 4.36047 10.6857 4.30765C12.092 3.91699 13.6922 3.5376 15.8276 3.5376C18.1046 3.5376 18.8321 3.81198 19.2181 4.31864C19.434 4.60205 19.6056 5.03689 19.7583 5.76697C19.8941 6.41592 20.0004 7.21749 20.1365 8.24324L20.1876 8.6281C20.5075 11.027 20.4397 12.4222 20.085 13.2024C19.9248 13.5548 19.7096 13.7711 19.4249 13.9137C19.1199 14.0663 18.6855 14.1583 18.0604 14.1583H15.6896C15.0085 14.1583 14.3969 14.729 14.4786 15.4868C14.5048 15.7302 14.5441 16.0234 14.584 16.3204C14.6078 16.4981 14.6318 16.6771 14.6533 16.8477C14.714 17.3293 14.7586 17.7692 14.7586 18.0979C14.7586 19.2226 14.5458 19.7144 14.2856 19.9709C14.0112 20.2414 13.5124 20.4261 12.4906 20.4983C12.1398 20.5231 11.7931 20.2245 11.7931 19.7883L11.7931 18.7359C11.7931 15.1863 9.30493 13.6728 8.11234 13.1588C7.74059 12.9986 7.35937 12.9264 7 12.8981V5.11949ZM3.75 3.53762C3.61193 3.53762 3.5 3.64955 3.5 3.78762V14.2876C3.5 14.4257 3.61193 14.5376 3.75 14.5376H5.25C5.38807 14.5376 5.5 14.4257 5.5 14.2876V3.78762C5.5 3.64955 5.38807 3.53762 5.25 3.53762H3.75Z" fill="#24292E"/>
</svg>

<svg xmlns="http://www.w3.org/2000/svg" width="24" height="24" viewBox="0 0 24 24"><path fill-rule="evenodd" d="M12.596 21.957c-1.301.092-2.303-.986-2.303-2.206v-1.053c0-2.666-1.813-3.785-2.774-4.2a1.864 1.864 0 00-.523-.13A1.75 1.75 0 015.25 16h-1.5A1.75 1.75 0 012 14.25V3.75C2 2.784 2.784 2 3.75 2h1.5a1.75 1.75 0 011.742 1.58c.838-.06 1.667-.296 2.69-.586l.602-.17C11.748 2.419 13.497 2 15.828 2c2.188 0 3.693.204 4.583 1.372.422.554.65 1.255.816 2.05.148.708.262 1.57.396 2.58l.051.39c.319 2.386.328 4.18-.223 5.394-.293.644-.743 1.125-1.355 1.431-.59.296-1.284.404-2.036.404h-2.05l.056.429c.025.18.05.372.076.572.06.483.117 1.006.117 1.438 0 1.245-.222 2.253-.92 2.942-.684.674-1.668.879-2.743.955zM7 5.082c1.059-.064 2.079-.355 3.118-.651.188-.054.377-.108.568-.16 1.406-.392 3.006-.771 5.142-.771 2.277 0 3.004.274 3.39.781.216.283.388.718.54 1.448.136.65.242 1.45.379 2.477l.05.385c.32 2.398.253 3.794-.102 4.574-.16.352-.375.569-.66.711-.305.153-.74.245-1.365.245h-2.37c-.681 0-1.293.57-1.211 1.328.026.244.065.537.105.834l.07.527c.06.482.105.922.105 1.25 0 1.125-.213 1.617-.473 1.873-.275.27-.774.456-1.795.528-.351.024-.698-.274-.698-.71v-1.053c0-3.55-2.488-5.063-3.68-5.577A3.485 3.485 0 007 12.861V5.08zM3.75 3.5a.25.25 0 00-.25.25v10.5c0 .138.112.25.25.25h1.5a.25.25 0 00.25-.25V3.75a.25.25 0 00-.25-.25h-1.5z"/></svg>
